;FLAVOR:Marlin
;TIME:27
;Filament used: 0.0398928m
;Layer height: 0.6
;MINX:5.144
;MINY:5.387
;MINZ:0.3
;MAXX:14.743
;MAXY:14.971
;MAXZ:2.1
;TARGET_MACHINE.NAME:Prusa i3
;Generated with Cura_SteamEngine 5.6.0
M140 S60
M105
M190 S60
M104 S200
M105
M109 S200
M82 ;absolute extrusion mode
G21 ;metric values
G90 ;absolute positioning
M82 ;set extruder to absolute mode
M107 ;start with the fan off
G28 X0 Y0 ;move X/Y to min endstops
G28 Z0 ;move Z to min endstops
G1 Z15.0 F9000 ;move the platform down 15mm
G92 E0 ;zero the extruded length
G1 F200 E3 ;extrude 3mm of feed stock
G92 E0 ;zero the extruded length again
G1 F9000
;Put printing message on LCD screen
M117 Printing...
G92 E0
G92 E0
G1 F1500 E-6.5
;LAYER_COUNT:4
;LAYER:0
M106 S158.1
;MESH:Simple_Hexagon3.stl
G0 F3600 X9.943 Y14.509 Z0.3
;TYPE:WALL-INNER
G1 F1500 E0
G1 F1800 X14.343 Y12.309 E0.24543
G1 X14.343 Y8.049 E0.45796
G1 X9.943 Y5.849 E0.70339
G1 X5.544 Y8.049 E0.94877
G1 X5.544 Y12.309 E1.1613
G1 X9.943 Y14.509 E1.40668
G0 F3600 X9.943 Y14.956
;TYPE:WALL-OUTER
G1 F1800 X14.743 Y12.556 E1.67442
G1 X14.743 Y7.802 E1.9116
G1 X9.943 Y5.402 E2.17934
G1 X5.144 Y7.802 E2.44703
G1 X5.144 Y12.556 E2.68421
G1 X9.943 Y14.956 E2.95191
G0 F3600 X10.121 Y14.867
G0 X9.943 Y14.084
;TYPE:SKIN
G1 F1800 X5.925 Y12.075 E3.17603
G1 X5.925 Y8.284 E3.36516
G1 X9.943 Y6.274 E3.5893
G1 X13.963 Y8.284 E3.81353
G1 X13.963 Y12.074 E4.00262
G1 X9.943 Y14.084 E4.22685
G0 F3600 X6.124 Y11.781
G1 F1800 X6.461 Y12.118 E4.25063
G0 F3600 X6.124 Y11.216
G1 F1800 X7.592 Y12.684 E4.3542
G1 X7.662 Y12.754
G0 F3600 X8.724 Y13.249
G1 F1800 X6.124 Y10.65 E4.53761
G0 F3600 X6.124 Y10.084
G1 F1800 X9.855 Y13.815 E4.80085
G0 F3600 X10.291 Y13.685
G1 F1800 X6.124 Y9.519 E5.09482
G0 F3600 X6.124 Y8.953
G1 F1800 X10.668 Y13.496 E5.41539
G0 F3600 X11.045 Y13.307
G1 F1800 X6.138 Y8.401 E5.76157
G0 F3600 X6.515 Y8.212
G1 F1800 X11.422 Y13.119 E6.10779
G0 F3600 X11.799 Y12.93
G1 F1800 X6.892 Y8.024 E6.45397
G0 F3600 X7.269 Y7.835
G1 F1800 X12.176 Y12.742 E6.80018
G0 F3600 X12.553 Y12.553
G1 F1800 X7.646 Y7.646 E7.1464
G0 F3600 X8.024 Y7.458
G1 F1800 X12.93 Y12.365 E7.49258
G0 F3600 X13.307 Y12.176
G1 F1800 X8.401 Y7.269 E7.83876
G0 F3600 X8.778 Y7.08
G1 F1800 X13.685 Y11.988 E8.18501
G0 F3600 X13.762 Y11.499
G1 F1800 X9.154 Y6.892 E8.51009
G0 F3600 X9.532 Y6.704
G1 F1800 X13.762 Y10.933 E8.80851
G0 F3600 X13.762 Y10.368
G1 F1800 X9.909 Y6.515 E9.08036
G1 X9.839 Y6.445
G0 F3600 X10.974 Y7.014
G1 F1800 X13.762 Y9.802 E9.27706
G0 F3600 X13.762 Y9.236
G1 F1800 X12.105 Y7.58 E9.39394
G1 X12.035 Y7.51
G0 F3600 X13.237 Y8.145
G1 F1800 X13.762 Y8.671 E9.43102
G0 F3600 X13.743 Y8.671
;MESH:NONMESH
G0 F600 X13.743 Y8.671 Z0.9
G0 F3600 X9.943 Y14.184
G0 X9.943 Y14.509
;TIME_ELAPSED:9.454406
;LAYER:1
M106 S255
;TYPE:WALL-INNER
;MESH:Simple_Hexagon3.stl
G1 F2700 X14.343 Y12.309 E9.92187
G1 X14.343 Y8.049 E10.34694
G1 X9.943 Y5.849 E10.83779
G1 X5.544 Y8.049 E11.32856
G1 X5.544 Y12.309 E11.75362
G1 X9.943 Y14.509 E12.24439
G0 F5400 X9.943 Y14.956
;TYPE:WALL-OUTER
G1 F1800 X14.743 Y12.556 E12.77986
G1 X14.743 Y7.802 E13.25422
G1 X9.943 Y5.402 E13.7897
G1 X5.144 Y7.802 E14.32509
G1 X5.144 Y12.556 E14.79944
G1 X9.943 Y14.956 E15.33483
G0 F5400 X10.121 Y14.867
G0 X9.943 Y14.084
;TYPE:SKIN
G1 F1800 X5.925 Y12.075 E15.78307
G1 X5.925 Y8.284 E16.16134
G1 X9.943 Y6.274 E16.60962
G1 X13.963 Y8.284 E17.05808
G1 X13.963 Y12.074 E17.43625
G1 X9.943 Y14.084 E17.88471
G0 F5400 X13.761 Y11.694
G1 F1800 X13.249 Y12.206 E17.95696
G0 F5400 X13.761 Y11.128
G1 F1800 X12.118 Y12.771 E18.18881
G1 X12.048 Y12.841
G0 F5400 X10.987 Y13.337
G1 F1800 X13.761 Y10.562 E18.58032
G0 F5400 X13.761 Y9.997
G1 F1800 X9.913 Y13.845 E19.12331
G0 F5400 X9.536 Y13.656
G1 F1800 X13.761 Y9.431 E19.71951
G0 F5400 X13.761 Y8.865
G1 F1800 X9.159 Y13.467 E20.3689
G0 F5400 X8.782 Y13.279
G1 F1800 X13.69 Y8.371 E21.06147
G0 F5400 X13.312 Y8.183
G1 F1800 X8.405 Y13.09 E21.7539
G0 F5400 X8.028 Y12.901
G1 F1800 X12.935 Y7.994 E22.44633
G0 F5400 X12.558 Y7.805
G1 F1800 X7.65 Y12.713 E23.1389
G0 F5400 X7.274 Y12.524
G1 F1800 X12.181 Y7.617 E23.83134
G0 F5400 X11.804 Y7.428
G1 F1800 X6.897 Y12.336 E24.52384
G0 F5400 X6.519 Y12.148
G1 F1800 X11.427 Y7.24 E25.21641
G0 F5400 X11.049 Y7.051
G1 F1800 X6.142 Y11.959 E25.90891
G0 F5400 X6.124 Y11.411
G1 F1800 X10.673 Y6.863 E26.55075
G0 F5400 X10.296 Y6.674
G1 F1800 X6.124 Y10.845 E27.1394
G0 F5400 X6.124 Y10.279
G1 F1800 X9.871 Y6.533 E27.66807
G1 X9.941 Y6.463
G0 F5400 X8.739 Y7.099
G1 F1800 X6.124 Y9.714 E28.03707
G0 F5400 X6.124 Y9.148
G1 F1800 X7.607 Y7.665 E28.24634
G1 X7.677 Y7.595
G0 F5400 X6.476 Y8.231
G1 F1800 X6.124 Y8.582 E28.29594
G0 F5400 X6.143 Y8.582
;MESH:NONMESH
G0 F600 X6.143 Y8.582 Z1.5
G0 F5400 X14.071 Y12.109
G0 X14.224 Y12.416
;TIME_ELAPSED:16.279218
;LAYER:2
;TYPE:WALL-OUTER
;MESH:Simple_Hexagon3.stl
G1 F770.8 X14.313 Y12.34 E28.30768
G1 F722.3 X14.32 Y8.023 E28.76966
G1 F774.7 X14.195 Y7.927 E28.78538
G1 F826.3 X9.943 Y5.802 E29.23004
G1 F822 X5.662 Y7.942 E29.68014
G1 F770.8 X5.567 Y8.023 E29.69266
G1 F722.3 X5.573 Y12.34 E30.15464
G1 F774.7 X5.691 Y12.431 E30.16951
G1 F826.3 X9.943 Y14.555 E30.61412
G1 F822 X14.224 Y12.416 E31.06418
G0 F7200 X14.046 Y12.505
G1 F1500 E24.56418
G0 F7200 X13.453 Y11.857
G0 X6.433 Y11.857
G0 X5.525 Y12.763
G1 F1500 E31.06418
G1 F774.7 X5.157 Y12.547 E31.10675
G1 F722.3 X5.151 Y7.814 E31.61325
G1 F770.8 X5.467 Y7.624 E31.65023
G1 F822 X9.942 Y5.387 E32.12072
G1 F826.3 X14.361 Y7.595 E32.58283
G1 F778.6 X14.736 Y7.814 E32.62594
G1 F732.6 X14.736 Y12.543 E33.12493
G1 F776.6 X14.419 Y12.734 E33.16177
G1 F822 X9.944 Y14.971 E33.63226
G1 F826.3 X5.525 Y12.763 E34.09437
G0 F7200 X5.703 Y12.852
G1 F1500 E27.59437
;MESH:NONMESH
G0 F600 X5.703 Y12.852 Z2.1
G0 F7200 X6.433 Y11.857
G0 X13.453 Y11.857
G0 X14.224 Y12.416
;TIME_ELAPSED:21.969147
;LAYER:3
;TYPE:WALL-OUTER
;MESH:Simple_Hexagon3.stl
G1 F1500 E34.09437
G1 F770.3 X14.313 Y12.34 E34.1061
G1 F721.8 X14.32 Y8.023 E34.56808
G1 F774.1 X14.195 Y7.927 E34.58381
G1 F825.7 X9.943 Y5.802 E35.02847
G1 F821.3 X5.662 Y7.942 E35.47856
G1 F770.3 X5.567 Y8.023 E35.49108
G1 F721.8 X5.573 Y12.34 E35.95306
G1 F774.1 X5.691 Y12.431 E35.96793
G1 F825.7 X9.943 Y14.555 E36.41255
G1 F821.3 X14.224 Y12.416 E36.8626
G0 F7200 X14.046 Y12.505
G1 F1500 E30.3626
G0 F7200 X13.453 Y11.857
G0 X6.433 Y11.857
G0 X5.525 Y12.763
G1 F1500 E36.8626
G1 F774.1 X5.157 Y12.547 E36.90518
G1 F721.8 X5.151 Y7.814 E37.41168
G1 F770.3 X5.467 Y7.624 E37.44865
G1 F821.3 X9.942 Y5.387 E37.91915
G1 F825.7 X14.361 Y7.595 E38.38125
G1 F778 X14.736 Y7.814 E38.42437
G1 F732 X14.736 Y12.543 E38.92336
G1 F776.1 X14.419 Y12.734 E38.96019
G1 F821.3 X9.944 Y14.971 E39.43069
G1 F825.7 X5.525 Y12.763 E39.89279
G0 F7200 X5.703 Y12.852
;TIME_ELAPSED:27.416343
G1 F1500 E33.39279
M140 S0
M107
M104 S0 ;extruder heater off
M140 S0 ;heated bed heater off (if you have it)
G91 ;relative positioning
G1 E-1 F300  ;retract the filament a bit before lifting the nozzle, to release some of the pressure
G1 Z+0.5 E-5 X-20 Y-20 F9000 ;move Z up a bit and retract filament even more
G28 X0 Y0 ;move X/Y to min endstops, so the head is out of the way
M84 ;steppers off
G90 ;absolute positioning
M82 ;absolute extrusion mode
M104 S0
;End of Gcode
;SETTING_3 {"global_quality": "[general]\\nversion = 4\\nname = Extra Coarse #2\
;SETTING_3 \ndefinition = prusa_i3\\n\\n[metadata]\\ntype = quality_changes\\nqu
;SETTING_3 ality_type = extra coarse\\nsetting_version = 22\\n\\n[values]\\nadhe
;SETTING_3 sion_type = none\\n\\n", "extruder_quality": ["[general]\\nversion = 
;SETTING_3 4\\nname = Extra Coarse #2\\ndefinition = prusa_i3\\n\\n[metadata]\\n
;SETTING_3 type = quality_changes\\nquality_type = extra coarse\\nsetting_versio
;SETTING_3 n = 22\\nposition = 0\\n\\n[values]\\ninfill_sparse_density = 0\\n\\n
;SETTING_3 "]}
