;FLAVOR:Marlin
;TIME:112
;Filament used: 0.224453m
;Layer height: 0.6
;MINX:9.641
;MINY:9.39
;MINZ:0.3
;MAXX:40.241
;MAXY:39.957
;MAXZ:2.7
;TARGET_MACHINE.NAME:Prusa i3
;Generated with Cura_SteamEngine 5.6.0
M140 S60
M105
M190 S60
M104 S200
M105
M109 S200
M82 ;absolute extrusion mode
G21 ;metric values
G90 ;absolute positioning
M82 ;set extruder to absolute mode
M107 ;start with the fan off
G28 X0 Y0 ;move X/Y to min endstops
G28 Z0 ;move Z to min endstops
G1 Z15.0 F9000 ;move the platform down 15mm
G92 E0 ;zero the extruded length
G1 F200 E3 ;extrude 3mm of feed stock
G92 E0 ;zero the extruded length again
G1 F9000
;Put printing message on LCD screen
M117 Printing...
G92 E0
G92 E0
G1 F1500 E-6.5
;LAYER_COUNT:5
;LAYER:0
M107
G0 F3600 X13.081 Y14.372 Z0.3
;TYPE:SKIRT
G1 F1500 E0
G1 F1800 X22.242 Y9.791 E0.511
G1 X24.298 Y9.39 E0.61551
G1 X25.853 Y9.425 E0.69311
G1 X27.729 Y9.834 E0.7889
G1 X36.504 Y14.286 E1.27981
G1 X38.11 Y15.442 E1.37853
G1 X39.402 Y17.406 E1.49582
G1 X39.886 Y18.43 E1.55232
G1 X40.241 Y20.238 E1.64425
G1 X40.17 Y29.289 E2.09582
G1 X39.93 Y30.728 E2.1686
G1 X39.023 Y32.665 E2.27531
G1 X38.038 Y33.842 E2.35188
G1 X36.801 Y34.963 E2.43516
G1 X27.623 Y39.554 E2.94715
G1 X25.623 Y39.898 E3.04839
G1 X24.183 Y39.957 E3.12029
G1 X22.126 Y39.487 E3.22556
G1 X13.378 Y35.049 E3.71495
G1 X11.772 Y33.893 E3.81367
G1 X10.48 Y31.929 E3.93096
G1 X9.996 Y30.905 E3.98747
G1 X9.641 Y29.097 E4.07939
G1 X9.712 Y20.046 E4.53096
G1 X9.952 Y18.607 E4.60374
G1 X10.859 Y16.67 E4.71045
G1 X11.844 Y15.493 E4.78702
G1 X13.081 Y14.372 E4.87031
G0 F3600 X13.308 Y14.706
G1 F1800 X22.372 Y10.173 E5.37591
G1 X24.333 Y9.791 E5.47558
G1 X25.805 Y9.824 E5.54904
G1 X27.593 Y10.214 E5.64034
G1 X36.27 Y14.611 E6.12565
G1 X37.817 Y15.725 E6.22076
G1 X39.04 Y17.577 E6.33148
G1 X39.503 Y18.556 E6.38551
G1 X39.841 Y20.278 E6.47306
G1 X39.775 Y29.223 E6.91934
G1 X39.544 Y30.61 E6.98949
G1 X38.684 Y32.447 E7.09069
G1 X37.731 Y33.585 E7.16474
G1 X36.574 Y34.629 E7.24249
G1 X27.496 Y39.17 E7.74889
G1 X25.607 Y39.498 E7.84455
G1 X24.219 Y39.555 E7.91385
G1 X22.264 Y39.108 E8.01391
G1 X13.612 Y34.724 E8.49781
G1 X12.065 Y33.61 E8.59291
G1 X10.842 Y31.758 E8.70364
G1 X10.379 Y30.779 E8.75767
G1 X10.041 Y29.057 E8.84522
G1 X10.107 Y20.112 E9.2915
G1 X10.338 Y18.725 E9.36165
G1 X11.198 Y16.888 E9.46284
G1 X12.151 Y15.75 E9.5369
G1 X13.308 Y14.706 E9.61465
G0 F3600 X13.535 Y15.04
G1 F1800 X22.501 Y10.556 E10.11478
G1 X24.369 Y10.192 E10.20973
G1 X25.757 Y10.223 E10.279
G1 X27.457 Y10.594 E10.3658
G1 X36.036 Y14.936 E10.84551
G1 X37.525 Y16.008 E10.93705
G1 X38.678 Y17.748 E11.04118
G1 X39.121 Y18.685 E11.09289
G1 X39.441 Y20.313 E11.17567
G1 X39.38 Y29.157 E11.61691
G1 X39.158 Y30.492 E11.68443
G1 X38.344 Y32.231 E11.78022
G1 X37.463 Y33.288 E11.84887
G1 X36.347 Y34.295 E11.92386
G1 X27.369 Y38.786 E12.42469
G1 X25.591 Y39.098 E12.51475
G1 X24.255 Y39.153 E12.58146
G1 X22.402 Y38.729 E12.67629
G1 X13.846 Y34.399 E13.15471
G1 X12.357 Y33.327 E13.24624
G1 X11.204 Y31.587 E13.35038
G1 X10.761 Y30.65 E13.40209
G1 X10.441 Y29.022 E13.48486
G1 X10.502 Y20.178 E13.9261
G1 X10.724 Y18.843 E13.99362
G1 X11.538 Y17.104 E14.08941
G1 X12.419 Y16.047 E14.15806
G1 X13.535 Y15.04 E14.23306
G0 F3600 X13.762 Y15.374
G1 F1800 X22.63 Y10.939 E14.72773
G1 X24.405 Y10.593 E14.81795
G1 X25.709 Y10.622 E14.88302
G1 X27.321 Y10.974 E14.96534
G1 X35.855 Y15.293 E15.44252
G1 X37.232 Y16.29 E15.52734
G1 X38.316 Y17.919 E15.62496
G1 X38.739 Y18.814 E15.67435
G1 X39.041 Y20.348 E15.75235
G1 X38.985 Y29.091 E16.18855
G1 X38.771 Y30.376 E16.25354
G1 X38.005 Y32.014 E16.34375
G1 X37.195 Y32.991 E16.40707
G1 X36.12 Y33.961 E16.47931
G1 X27.242 Y38.402 E16.97456
G1 X25.574 Y38.698 E17.05907
G1 X24.291 Y38.751 E17.12314
G1 X22.54 Y38.35 E17.21276
G1 X14.027 Y34.042 E17.68876
G1 X12.65 Y33.045 E17.77357
G1 X11.566 Y31.416 E17.87119
G1 X11.143 Y30.521 E17.92058
G1 X10.841 Y28.987 E17.99858
G1 X10.897 Y20.244 E18.43478
G1 X11.111 Y18.959 E18.49977
G1 X11.877 Y17.321 E18.58999
G1 X12.687 Y16.344 E18.6533
G1 X13.762 Y15.374 E18.72554
G0 F3600 X13.989 Y15.708
G1 F1800 X22.759 Y11.322 E19.21474
G1 X24.441 Y10.994 E19.30024
G1 X25.661 Y11.021 E19.36112
G1 X27.185 Y11.354 E19.43895
G1 X35.674 Y15.65 E19.91361
G1 X36.938 Y16.57 E19.99161
G1 X37.954 Y18.09 E20.08282
G1 X38.357 Y18.943 E20.12989
G1 X38.641 Y20.383 E20.20311
G1 X38.59 Y29.025 E20.63427
G1 X38.384 Y30.26 E20.69674
G1 X37.666 Y31.797 E20.78137
G1 X36.927 Y32.694 E20.83935
G1 X35.893 Y33.627 E20.90884
G1 X27.115 Y38.018 E21.39851
G1 X25.557 Y38.298 E21.47748
G1 X24.327 Y38.349 E21.5389
G1 X22.678 Y37.971 E21.6233
G1 X14.208 Y33.685 E22.0969
G1 X12.944 Y32.765 E22.17489
G1 X11.928 Y31.245 E22.26611
G1 X11.525 Y30.392 E22.31317
G1 X11.241 Y28.952 E22.3864
G1 X11.292 Y20.31 E22.81756
G1 X11.498 Y19.075 E22.88002
G1 X12.216 Y17.538 E22.96466
G1 X12.955 Y16.641 E23.02264
G1 X13.989 Y15.708 E23.09212
G0 F3600 X14.216 Y16.042
G1 F1800 X22.888 Y11.705 E23.57586
G1 X24.477 Y11.395 E23.65663
G1 X25.613 Y11.42 E23.71332
G1 X27.049 Y11.734 E23.78665
G1 X35.493 Y16.007 E24.2588
G1 X36.645 Y16.851 E24.33004
G1 X37.621 Y18.312 E24.4177
G1 X37.975 Y19.069 E24.45939
G1 X38.241 Y20.418 E24.52799
G1 X38.195 Y28.959 E24.95411
G1 X37.997 Y30.144 E25.01405
G1 X37.327 Y31.58 E25.09311
G1 X36.659 Y32.397 E25.14576
G1 X35.666 Y33.293 E25.21248
G1 X26.988 Y37.634 E25.69658
G1 X25.54 Y37.898 E25.77001
G1 X24.363 Y37.947 E25.82878
G1 X22.816 Y37.592 E25.90797
G1 X14.389 Y33.328 E26.37915
G1 X13.237 Y32.484 E26.4504
G1 X12.261 Y31.023 E26.53805
G1 X11.907 Y30.266 E26.57975
G1 X11.641 Y28.917 E26.64834
G1 X11.687 Y20.376 E27.07446
G1 X11.885 Y19.191 E27.1344
G1 X12.555 Y17.755 E27.21346
G1 X13.223 Y16.938 E27.26611
G1 X14.216 Y16.042 E27.33284
G0 F3600 X14.443 Y16.376
G1 F1800 X23.018 Y12.087 E27.81117
G1 X24.512 Y11.796 E27.88711
G1 X25.564 Y11.819 E27.93961
G1 X26.916 Y12.115 E28.00866
G1 X35.257 Y16.33 E28.47491
G1 X36.351 Y17.132 E28.54258
G1 X37.288 Y18.534 E28.62671
G1 X37.592 Y19.194 E28.66296
G1 X37.841 Y20.454 E28.72704
G1 X37.8 Y28.893 E29.14807
G1 X37.61 Y30.028 E29.20548
G1 X36.987 Y31.363 E29.27898
G1 X36.391 Y32.1 E29.32627
G1 X35.439 Y32.959 E29.39024
G1 X26.861 Y37.25 E29.86876
G1 X25.468 Y37.504 E29.9394
G1 X24.399 Y37.545 E29.99277
G1 X22.952 Y37.213 E30.06684
G1 X14.625 Y33.005 E30.53231
G1 X13.531 Y32.203 E30.59998
G1 X12.594 Y30.801 E30.68411
G1 X12.29 Y30.141 E30.72036
G1 X12.041 Y28.881 E30.78444
G1 X12.082 Y20.442 E31.20547
G1 X12.272 Y19.307 E31.26288
G1 X12.895 Y17.972 E31.33638
G1 X13.491 Y17.235 E31.38367
G1 X14.443 Y16.376 E31.44764
G0 F3600 X14.67 Y16.71
G1 F1800 X23.147 Y12.47 E31.92051
G1 X24.548 Y12.197 E31.99172
G1 X25.516 Y12.218 E32.04003
G1 X26.782 Y12.495 E32.10468
G1 X35.02 Y16.653 E32.56507
G1 X36.058 Y17.414 E32.62928
G1 X36.955 Y18.756 E32.70981
G1 X37.209 Y19.32 E32.74067
G1 X37.441 Y20.491 E32.80023
G1 X37.405 Y28.827 E33.21611
G1 X37.224 Y29.908 E33.2708
G1 X36.644 Y31.152 E33.33927
G1 X36.123 Y31.803 E33.38087
G1 X35.212 Y32.625 E33.44209
G1 X26.734 Y36.866 E33.91503
G1 X25.396 Y37.11 E33.98288
G1 X24.437 Y37.143 E34.03076
G1 X23.087 Y36.833 E34.09986
G1 X14.862 Y32.682 E34.5595
G1 X13.824 Y31.921 E34.62372
G1 X12.927 Y30.579 E34.70425
G1 X12.673 Y30.015 E34.73511
G1 X12.441 Y28.844 E34.79467
G1 X12.477 Y20.508 E35.21055
G1 X12.658 Y19.427 E35.26524
G1 X13.238 Y18.183 E35.33371
G1 X13.759 Y17.532 E35.37531
G1 X14.67 Y16.71 E35.43653
G0 F3600 X14.897 Y17.044
G1 F1800 X23.276 Y12.853 E35.90393
G1 X24.584 Y12.598 E35.97042
G1 X25.467 Y12.617 E36.01448
G1 X26.649 Y12.876 E36.07485
G1 X34.784 Y16.976 E36.52934
G1 X35.765 Y17.695 E36.59002
G1 X36.59 Y18.921 E36.66375
G1 X36.827 Y19.446 E36.69248
G1 X37.041 Y20.528 E36.74751
G1 X37.005 Y28.825 E37.16145
G1 X36.839 Y29.786 E37.21011
G1 X36.301 Y30.94 E37.27363
G1 X35.855 Y31.506 E37.30958
G1 X34.985 Y32.291 E37.36804
G1 X26.604 Y36.483 E37.83556
G1 X25.382 Y36.71 E37.89757
G1 X24.476 Y36.741 E37.9428
G1 X23.222 Y36.453 E38.00699
G1 X15.098 Y32.359 E38.46085
G1 X14.117 Y31.64 E38.52153
G1 X13.292 Y30.414 E38.59526
G1 X13.055 Y29.889 E38.62399
G1 X12.841 Y28.807 E38.67902
G1 X12.877 Y20.51 E39.09296
G1 X13.043 Y19.549 E39.14162
G1 X13.581 Y18.395 E39.20514
G1 X14.027 Y17.829 E39.24109
G1 X14.897 Y17.044 E39.29955
G0 F3600 X15.124 Y17.378
G1 F1800 X23.406 Y13.236 E39.76154
G1 X24.62 Y12.999 E39.82325
G1 X25.418 Y13.016 E39.86307
G1 X26.516 Y13.257 E39.91915
G1 X34.548 Y17.299 E40.36775
G1 X35.472 Y17.976 E40.4249
G1 X36.225 Y19.085 E40.49177
G1 X36.444 Y19.571 E40.51837
G1 X36.641 Y20.565 E40.56892
G1 X36.611 Y28.757 E40.97763
G1 X36.454 Y29.667 E41.0237
G1 X35.959 Y30.728 E41.08211
G1 X35.587 Y31.209 E41.11245
G1 X34.758 Y31.957 E41.16815
G1 X26.475 Y36.1 E41.6302
G1 X25.368 Y36.31 E41.68642
G1 X24.515 Y36.339 E41.729
G1 X23.357 Y36.073 E41.78827
G1 X15.334 Y32.036 E42.23636
G1 X14.41 Y31.359 E42.29351
G1 X13.657 Y30.25 E42.36038
G1 X13.438 Y29.764 E42.38698
G1 X13.241 Y28.77 E42.43753
G1 X13.271 Y20.578 E42.84624
G1 X13.428 Y19.668 E42.89231
G1 X13.923 Y18.607 E42.95072
G1 X14.295 Y18.126 E42.98106
G1 X15.124 Y17.378 E43.03676
G0 F3600 X15.351 Y17.712
G1 F1800 X23.536 Y13.618 E43.49335
G1 X24.655 Y13.4 E43.55022
G1 X25.369 Y13.415 E43.58585
G1 X26.383 Y13.638 E43.63765
G1 X34.312 Y17.622 E44.08036
G1 X35.18 Y18.258 E44.13404
G1 X35.86 Y19.25 E44.19404
G1 X36.062 Y19.697 E44.21852
G1 X36.241 Y20.602 E44.26454
G1 X36.217 Y28.689 E44.66801
G1 X36.069 Y29.548 E44.71149
G1 X35.616 Y30.518 E44.7649
G1 X35.319 Y30.912 E44.78952
G1 X34.531 Y31.623 E44.84247
G1 X26.346 Y35.717 E45.29905
G1 X25.355 Y35.91 E45.34942
G1 X24.553 Y35.937 E45.38946
G1 X23.493 Y35.694 E45.44371
G1 X15.57 Y31.713 E45.88609
G1 X14.702 Y31.077 E45.93977
G1 X14.022 Y30.085 E45.99978
G1 X13.82 Y29.638 E46.02425
G1 X13.641 Y28.733 E46.07027
G1 X13.665 Y20.646 E46.47374
G1 X13.813 Y19.787 E46.51722
G1 X14.266 Y18.817 E46.57063
G1 X14.563 Y18.423 E46.59525
G1 X15.351 Y17.712 E46.6482
G0 F3600 X15.578 Y18.046
G1 F1800 X23.665 Y14.001 E47.09932
G1 X24.691 Y13.801 E47.15147
G1 X25.32 Y13.814 E47.18286
G1 X26.248 Y14.018 E47.23026
G1 X34.076 Y17.945 E47.66719
G1 X34.889 Y18.541 E47.71748
G1 X35.5 Y19.425 E47.77109
G1 X35.67 Y19.775 E47.79051
G1 X35.841 Y20.639 E47.83445
G1 X35.823 Y28.621 E48.23267
G1 X35.684 Y29.425 E48.27338
G1 X35.269 Y30.315 E48.32237
G1 X35.051 Y30.615 E48.34087
G1 X34.304 Y31.289 E48.39107
G1 X26.217 Y35.334 E48.84219
G1 X25.278 Y35.517 E48.88991
G1 X24.591 Y35.535 E48.9242
G1 X23.63 Y35.315 E48.97339
G1 X15.806 Y31.39 E49.41009
G1 X14.993 Y30.794 E49.46038
G1 X14.382 Y29.91 E49.51399
G1 X14.212 Y29.56 E49.53341
G1 X14.041 Y28.696 E49.57735
G1 X14.059 Y20.714 E49.97557
G1 X14.198 Y19.91 E50.01628
G1 X14.613 Y19.02 E50.06527
G1 X14.831 Y18.72 E50.08377
G1 X15.578 Y18.046 E50.13397
G0 F3600 X15.805 Y18.38
G1 F1800 X23.795 Y14.384 E50.57966
G1 X24.727 Y14.202 E50.62704
G1 X25.271 Y14.213 E50.65419
G1 X26.114 Y14.398 E50.69724
G1 X33.84 Y18.268 E51.12835
G1 X34.599 Y18.824 E51.17529
G1 X35.171 Y19.652 E51.2255
G1 X35.288 Y19.904 E51.23936
G1 X35.441 Y20.676 E51.27862
G1 X35.429 Y28.553 E51.67161
G1 X35.299 Y29.305 E51.70968
G1 X34.938 Y30.09 E51.75279
G1 X34.783 Y30.318 E51.76654
G1 X34.077 Y30.955 E51.81398
G1 X26.087 Y34.951 E52.25968
G1 X25.201 Y35.124 E52.30472
G1 X24.631 Y35.134 E52.33316
G1 X23.767 Y34.936 E52.37738
G1 X16.042 Y31.067 E52.80842
G1 X15.283 Y30.511 E52.85536
G1 X14.711 Y29.683 E52.90557
G1 X14.594 Y29.431 E52.91943
G1 X14.441 Y28.659 E52.95869
G1 X14.453 Y20.782 E53.35168
G1 X14.583 Y20.03 E53.38975
G1 X14.944 Y19.245 E53.43286
G1 X15.099 Y19.017 E53.44661
G1 X15.805 Y18.38 E53.49405
G0 F3600 X16.032 Y18.714
G1 F1800 X23.925 Y14.766 E53.93435
G1 X24.803 Y14.595 E53.97898
G1 X25.255 Y14.613 E54.00154
G1 X25.978 Y14.778 E54.03854
G1 X33.604 Y18.591 E54.46391
G1 X34.309 Y19.107 E54.5075
G1 X34.842 Y19.879 E54.5543
G1 X34.905 Y20.028 E54.56237
G1 X35.041 Y20.713 E54.59722
G1 X35.035 Y28.485 E54.98496
G1 X34.914 Y29.186 E55.02045
G1 X34.575 Y29.923 E55.06092
G1 X34.48 Y30.053 E55.06896
G1 X33.85 Y30.621 E55.11128
G1 X25.957 Y34.569 E55.55157
G1 X25.125 Y34.731 E55.59386
G1 X24.673 Y34.733 E55.61641
G1 X23.904 Y34.557 E55.65577
G1 X16.278 Y30.744 E56.08114
G1 X15.573 Y30.228 E56.12473
G1 X15.04 Y29.456 E56.17153
G1 X14.977 Y29.307 E56.1796
G1 X14.841 Y28.622 E56.21444
G1 X14.847 Y20.85 E56.60219
G1 X14.968 Y20.149 E56.63768
G1 X15.307 Y19.412 E56.67815
G1 X15.402 Y19.282 E56.68619
G1 X16.032 Y18.714 E56.7285
G0 F3600 X16.259 Y19.048
G1 F1800 X24.055 Y15.149 E57.16338
G1 X24.88 Y14.988 E57.20532
G1 X25.166 Y15.003 E57.2196
G1 X25.841 Y15.157 E57.25414
G1 X33.425 Y18.949 E57.67717
G1 X34.018 Y19.389 E57.71401
G1 X34.513 Y20.106 E57.75748
G1 X34.641 Y20.751 E57.79029
G1 X34.641 Y28.417 E58.17274
G1 X34.529 Y29.067 E58.20565
G1 X34.212 Y29.756 E58.24349
G1 X33.623 Y30.287 E58.28305
G1 X25.827 Y34.186 E58.71793
G1 X25.048 Y34.338 E58.75753
G1 X24.762 Y34.343 E58.7718
G1 X24.041 Y34.178 E58.8087
G1 X16.457 Y30.386 E59.23172
G1 X15.864 Y29.946 E59.26856
G1 X15.369 Y29.229 E59.31203
G1 X15.241 Y28.584 E59.34484
G1 X15.241 Y20.918 E59.7273
G1 X15.353 Y20.268 E59.7602
G1 X15.67 Y19.579 E59.79804
G1 X16.259 Y19.048 E59.83761
G0 F3600 X16.486 Y19.382
G1 F1800 X24.185 Y15.532 E60.26706
G1 X24.911 Y15.39 E60.30397
G1 X25.077 Y15.393 E60.31225
G1 X25.704 Y15.536 E60.34433
G1 X33.246 Y19.307 E60.76502
G1 X33.727 Y19.671 E60.79511
G1 X34.137 Y20.265 E60.83112
G1 X34.241 Y20.751 E60.85592
G1 X34.241 Y28.417 E61.23837
G1 X34.144 Y28.947 E61.26525
G1 X33.884 Y29.513 E61.29633
G1 X33.396 Y29.953 E61.32911
G1 X25.697 Y33.803 E61.75856
G1 X24.971 Y33.945 E61.79547
G1 X24.805 Y33.942 E61.80375
G1 X24.178 Y33.799 E61.83584
G1 X16.636 Y30.028 E62.25652
G1 X16.155 Y29.664 E62.28662
G1 X15.745 Y29.07 E62.32263
G1 X15.641 Y28.584 E62.34742
G1 X15.641 Y20.918 E62.72988
G1 X15.738 Y20.388 E62.75676
G1 X15.998 Y19.822 E62.78784
G1 X16.486 Y19.382 E62.82062
G0 F3600 X16.665 Y19.74
G1 F1800 X24.315 Y15.915 E63.24733
G1 X24.988 Y15.783 E63.28154
G1 X25.567 Y15.915 E63.31117
G1 X33.067 Y19.665 E63.72951
G1 X33.435 Y19.951 E63.75276
G1 X33.763 Y20.426 E63.78156
G1 X33.841 Y20.751 E63.79824
G1 X33.841 Y28.417 E64.1807
G1 X33.752 Y28.87 E64.20373
G1 X33.555 Y29.272 E64.22606
G1 X33.217 Y29.595 E64.24939
G1 X25.567 Y33.42 E64.6761
G1 X24.894 Y33.552 E64.71031
G1 X24.315 Y33.42 E64.73994
G1 X16.815 Y29.67 E65.15828
G1 X16.447 Y29.384 E65.18153
G1 X16.119 Y28.909 E65.21033
G1 X16.041 Y28.584 E65.22701
G1 X16.041 Y20.918 E65.60947
G1 X16.13 Y20.465 E65.6325
G1 X16.327 Y20.063 E65.65483
G1 X16.665 Y19.74 E65.67816
G0 F3600 X16.844 Y20.098
G1 F1800 X24.494 Y16.273 E66.10487
G1 X24.983 Y16.192 E66.12959
G1 X25.388 Y16.273 E66.1502
G1 X32.888 Y20.023 E66.56854
G1 X33.184 Y20.262 E66.58752
G1 X33.379 Y20.537 E66.60434
G1 X33.441 Y20.751 E66.61546
G1 X33.441 Y28.417 E66.99792
G1 X33.361 Y28.785 E67.0167
G1 X33.202 Y29.084 E67.0336
G1 X33.038 Y29.237 E67.04479
G1 X25.388 Y33.062 E67.4715
G1 X24.899 Y33.143 E67.49623
G1 X24.494 Y33.062 E67.51683
G1 X16.994 Y29.312 E67.93517
G1 X16.698 Y29.073 E67.95415
G1 X16.503 Y28.798 E67.97097
G1 X16.441 Y28.584 E67.98209
G1 X16.441 Y20.918 E68.36455
G1 X16.521 Y20.55 E68.38334
G1 X16.68 Y20.251 E68.40023
G1 X16.844 Y20.098 E68.41142
G0 F3600 X17.289 Y20.77
G1 F1800 X24.852 Y16.989 E68.83327
G1 X25.03 Y16.989 E68.84215
G1 X32.53 Y20.739 E69.26049
G1 X32.641 Y20.849 E69.26828
G1 X32.641 Y28.417 E69.64585
G1 X32.593 Y28.565 E69.65362
G1 X25.03 Y32.346 E70.07546
G1 X24.852 Y32.346 E70.08434
G1 X17.352 Y28.596 E70.50268
G1 X17.241 Y28.486 E70.51048
G1 X17.241 Y20.918 E70.88805
G1 X17.289 Y20.77 E70.89581
G0 F3600 X17.023 Y20.456
G1 F1800 X24.673 Y16.631 E71.32252
G1 X25.03 Y16.589 E71.34045
G1 X25.209 Y16.631 E71.34963
G1 X32.709 Y20.381 E71.76797
G1 X32.923 Y20.565 E71.78205
G1 X33.041 Y20.751 E71.79304
G1 X33.041 Y28.417 E72.1755
G1 X32.973 Y28.688 E72.18944
G1 X32.859 Y28.879 E72.20053
G1 X25.209 Y32.704 E72.62724
G1 X24.852 Y32.746 E72.64518
G1 X24.673 Y32.704 E72.65435
G1 X17.173 Y28.954 E73.07269
G1 X16.959 Y28.77 E73.08677
G1 X16.841 Y28.584 E73.09776
