;FLAVOR:Marlin
;TIME:79
;Filament used: 0.180503m
;Layer height: 0.6
;MINX:1.044
;MINY:0.919
;MINZ:0.3
;MAXX:24.844
;MAXY:24.691
;MAXZ:2.7
;TARGET_MACHINE.NAME:Prusa i3
;Generated with Cura_SteamEngine 5.6.0
M140 S60
M105
M190 S60
M104 S200
M105
M109 S200
M82 ;absolute extrusion mode
G21 ;metric values
G90 ;absolute positioning
M82 ;set extruder to absolute mode
M107 ;start with the fan off
G28 X0 Y0 ;move X/Y to min endstops
G28 Z0 ;move Z to min endstops
G1 Z15.0 F9000 ;move the platform down 15mm
G92 E0 ;zero the extruded length
G1 F200 E3 ;extrude 3mm of feed stock
G92 E0 ;zero the extruded length again
G1 F9000
;Put printing message on LCD screen
M117 Printing...
G92 E0
G92 E0
G1 F1500 E-6.5
;LAYER_COUNT:5
;LAYER:0
M107
G0 F3600 X3.062 Y5.349 Z0.3
;TYPE:SKIRT
G1 F1500 E0
G1 F1800 X4.225 Y4.744 E0.0654
G1 X10.433 Y1.641 E0.41166
G1 X11.101 Y1.323 E0.44857
G1 X11.725 Y1.092 E0.48176
G1 X12.466 Y0.945 E0.51945
G1 X13.034 Y0.919 E0.54782
G1 X13.853 Y1.015 E0.58896
G1 X14.627 Y1.244 E0.62923
G1 X15.346 Y1.586 E0.66895
G1 X21.871 Y4.85 E1.03294
G1 X22.546 Y5.204 E1.07097
G1 X23.126 Y5.585 E1.10559
G1 X23.597 Y6.008 E1.13717
G1 X24.072 Y6.596 E1.17489
G1 X24.415 Y7.197 E1.20941
G1 X24.622 Y7.727 E1.2378
G1 X24.823 Y8.579 E1.28147
G1 X24.844 Y9.777 E1.34125
G1 X24.844 Y15.881 E1.64578
G1 X24.83 Y16.678 E1.68554
G1 X24.747 Y17.401 E1.72185
G1 X24.58 Y18.009 E1.75331
G1 X24.269 Y18.697 E1.79098
G1 X23.96 Y19.173 E1.81929
G1 X23.465 Y19.732 E1.85654
G1 X22.831 Y20.259 E1.89767
G1 X21.663 Y20.866 E1.96334
G1 X15.455 Y23.969 E2.3096
G1 X14.787 Y24.287 E2.34651
G1 X14.163 Y24.518 E2.3797
G1 X13.422 Y24.665 E2.41739
G1 X12.854 Y24.691 E2.44576
G1 X12.035 Y24.595 E2.4869
G1 X11.255 Y24.365 E2.52747
G1 X10.493 Y23.999 E2.56964
G1 X4.017 Y20.76 E2.93089
G1 X3.342 Y20.406 E2.96892
G1 X2.762 Y20.025 E3.00354
G1 X2.291 Y19.602 E3.03512
G1 X1.815 Y19.014 E3.07286
G1 X1.5 Y18.467 E3.10436
G1 X1.232 Y17.769 E3.14166
G1 X1.064 Y17.027 E3.17961
G1 X1.044 Y15.799 E3.24089
G1 X1.044 Y9.685 E3.54592
G1 X1.058 Y8.928 E3.58369
G1 X1.141 Y8.209 E3.6198
G1 X1.287 Y7.66 E3.64814
G1 X1.623 Y6.909 E3.68919
G1 X2.01 Y6.332 E3.72385
G1 X2.475 Y5.831 E3.75795
G1 X3.062 Y5.349 E3.79584
G0 F3600 X3.284 Y5.684
G1 F1800 X4.404 Y5.102 E3.85881
G1 X10.606 Y2.002 E4.20473
G1 X11.24 Y1.698 E4.23981
G1 X11.864 Y1.467 E4.27301
G1 X12.484 Y1.345 E4.30453
G1 X13.052 Y1.319 E4.3329
G1 X13.742 Y1.399 E4.36756
G1 X14.455 Y1.605 E4.40458
G1 X15.167 Y1.944 E4.44392
G1 X21.686 Y5.205 E4.80758
G1 X22.329 Y5.54 E4.84375
G1 X22.859 Y5.883 E4.87525
G1 X23.33 Y6.306 E4.90683
G1 X23.726 Y6.796 E4.93826
G1 X24.042 Y7.343 E4.96978
G1 X24.249 Y7.873 E4.99817
G1 X24.424 Y8.63 E5.03693
G1 X24.444 Y9.784 E5.09451
G1 X24.444 Y15.875 E5.39839
G1 X24.432 Y16.635 E5.43632
G1 X24.361 Y17.295 E5.46943
G1 X24.194 Y17.903 E5.50089
G1 X23.933 Y18.479 E5.53244
G1 X23.624 Y18.955 E5.56075
G1 X23.209 Y19.424 E5.592
G1 X22.606 Y19.925 E5.63111
G1 X21.484 Y20.508 E5.69419
G1 X15.282 Y23.608 E6.04011
G1 X14.648 Y23.912 E6.07519
G1 X14.024 Y24.143 E6.10838
G1 X13.404 Y24.265 E6.13991
G1 X12.836 Y24.291 E6.16828
G1 X12.146 Y24.211 E6.20293
G1 X11.428 Y24.004 E6.24021
G1 X10.672 Y23.641 E6.28205
G1 X4.202 Y20.405 E6.64296
G1 X3.559 Y20.07 E6.67913
G1 X3.029 Y19.727 E6.71063
G1 X2.558 Y19.304 E6.74221
G1 X2.162 Y18.814 E6.77365
G1 X1.847 Y18.267 E6.80514
G1 X1.622 Y17.681 E6.83645
G1 X1.463 Y16.98 E6.87232
G1 X1.444 Y15.793 E6.93154
G1 X1.444 Y9.692 E7.23592
G1 X1.456 Y8.971 E7.2719
G1 X1.528 Y8.312 E7.30497
G1 X1.674 Y7.763 E7.33331
G1 X1.957 Y7.129 E7.36795
G1 X2.305 Y6.602 E7.39946
G1 X2.729 Y6.14 E7.43074
G1 X3.284 Y5.684 E7.46658
G0 F3600 X3.504 Y6.021
G1 F1800 X4.583 Y5.46 E7.52725
G1 X10.779 Y2.363 E7.87284
G1 X11.413 Y2.059 E7.90792
G1 X11.944 Y1.859 E7.93622
G1 X12.502 Y1.745 E7.96464
G1 X13.07 Y1.719 E7.99301
G1 X13.634 Y1.784 E8.02133
G1 X14.283 Y1.966 E8.05496
G1 X14.988 Y2.302 E8.09392
G1 X21.502 Y5.56 E8.45729
G1 X22.114 Y5.878 E8.4917
G1 X22.594 Y6.183 E8.52007
G1 X23.021 Y6.56 E8.54849
G1 X23.381 Y6.998 E8.57677
G1 X23.669 Y7.489 E8.60517
G1 X23.876 Y8.019 E8.63356
G1 X24.025 Y8.678 E8.66727
G1 X24.044 Y9.791 E8.7228
G1 X24.044 Y15.869 E9.02603
G1 X24.034 Y16.595 E9.06226
G1 X23.974 Y17.192 E9.09219
G1 X23.828 Y17.741 E9.12053
G1 X23.597 Y18.261 E9.14892
G1 X23.288 Y18.737 E9.17723
G1 X22.953 Y19.116 E9.20247
G1 X22.381 Y19.591 E9.23956
G1 X21.305 Y20.15 E9.30006
G1 X15.109 Y23.247 E9.64564
G1 X14.475 Y23.551 E9.68072
G1 X13.944 Y23.751 E9.70903
G1 X13.386 Y23.865 E9.73744
G1 X12.818 Y23.891 E9.76581
G1 X12.254 Y23.826 E9.79413
G1 X11.601 Y23.643 E9.82797
G1 X10.851 Y23.283 E9.86947
G1 X4.386 Y20.05 E10.2301
G1 X3.774 Y19.732 E10.2645
G1 X3.294 Y19.427 E10.29288
G1 X2.867 Y19.05 E10.32129
G1 X2.507 Y18.612 E10.34958
G1 X2.219 Y18.121 E10.37798
G1 X2.012 Y17.592 E10.40632
G1 X1.862 Y16.932 E10.44009
G1 X1.844 Y15.787 E10.49722
G1 X1.844 Y9.698 E10.801
G1 X1.854 Y9.012 E10.83523
G1 X1.915 Y8.415 E10.86517
G1 X2.061 Y7.866 E10.89351
G1 X2.292 Y7.347 E10.92185
G1 X2.602 Y6.87 E10.95023
G1 X2.983 Y6.449 E10.97856
G1 X3.504 Y6.021 E11.0122
G0 F3600 X3.724 Y6.358
G1 F1800 X4.768 Y5.815 E11.07091
G1 X10.952 Y2.723 E11.41585
G1 X11.557 Y2.432 E11.44934
G1 X12.028 Y2.25 E11.47453
G1 X12.523 Y2.144 E11.49979
G1 X13.028 Y2.117 E11.52502
G1 X13.53 Y2.17 E11.5502
G1 X14.111 Y2.327 E11.58023
G1 X14.809 Y2.66 E11.61881
G1 X21.318 Y5.915 E11.98189
G1 X21.903 Y6.218 E12.01476
G1 X22.332 Y6.485 E12.03997
G1 X22.714 Y6.816 E12.06518
G1 X23.038 Y7.204 E12.0904
G1 X23.298 Y7.638 E12.11564
G1 X23.486 Y8.107 E12.14085
G1 X23.626 Y8.725 E12.17246
G1 X23.644 Y9.798 E12.226
G1 X23.644 Y15.863 E12.52859
G1 X23.634 Y16.589 E12.56481
G1 X23.587 Y17.092 E12.59002
G1 X23.461 Y17.582 E12.61526
G1 X23.26 Y18.046 E12.64048
G1 X22.988 Y18.472 E12.6657
G1 X22.653 Y18.851 E12.69094
G1 X22.162 Y19.253 E12.7226
G1 X21.12 Y19.795 E12.78119
G1 X14.936 Y22.887 E13.12613
G1 X14.331 Y23.178 E13.15962
G1 X13.86 Y23.36 E13.18482
G1 X13.365 Y23.466 E13.21007
G1 X12.86 Y23.493 E13.2353
G1 X12.358 Y23.44 E13.26049
G1 X11.774 Y23.282 E13.29067
G1 X11.024 Y22.922 E13.33217
G1 X4.57 Y19.695 E13.69217
G1 X3.985 Y19.392 E13.72504
G1 X3.556 Y19.125 E13.75025
G1 X3.174 Y18.794 E13.77547
G1 X2.85 Y18.406 E13.80069
G1 X2.59 Y17.972 E13.82593
G1 X2.402 Y17.503 E13.85113
G1 X2.261 Y16.884 E13.88281
G1 X2.244 Y15.781 E13.93784
G1 X2.244 Y9.704 E14.24103
G1 X2.254 Y9.018 E14.27525
G1 X2.302 Y8.515 E14.30046
G1 X2.428 Y8.025 E14.3257
G1 X2.629 Y7.562 E14.35089
G1 X2.901 Y7.136 E14.3761
G1 X3.237 Y6.758 E14.40133
G1 X3.724 Y6.358 E14.43278
G1 F1500 E7.93278
;MESH:Simple_Hexagon2.stl
G0 F3600 X5.377 Y8.346
G0 X5.861 Y9.313
G0 X12.944 Y19.31
G0 X12.944 Y19.635
;TYPE:WALL-INNER
G1 F1500 E14.43278
G1 F1800 X19.844 Y16.185 E14.81765
G1 X19.844 Y9.425 E15.15491
G1 X12.944 Y5.975 E15.53978
G1 X6.044 Y9.425 E15.92466
G1 X6.044 Y16.185 E16.26192
G1 X12.944 Y19.635 E16.64679
G0 F3600 X12.944 Y20.082
;TYPE:WALL-OUTER
G1 F1800 X20.244 Y16.432 E17.05398
G1 X20.244 Y9.178 E17.41588
G1 X12.944 Y5.528 E17.82307
G1 X5.644 Y9.178 E18.23025
G1 X5.644 Y16.432 E18.59216
G1 X12.944 Y20.082 E18.99934
G0 F3600 X13.122 Y19.993
G0 X12.944 Y19.21
;TYPE:SKIN
G1 F1800 X6.425 Y15.95 E19.36298
G1 X6.425 Y9.66 E19.67679
G1 X12.944 Y6.4 E20.04042
G1 X19.464 Y9.66 E20.4041
G1 X19.464 Y15.95 E20.71791
G1 X12.944 Y19.21 E21.08159
G0 F3600 X6.624 Y15.675
G1 F1800 X6.924 Y15.975 E21.10275
G0 F3600 X6.624 Y15.11
G1 F1800 X8.056 Y16.541 E21.20375
G1 X8.126 Y16.611
G0 F3600 X9.187 Y17.107
G1 F1800 X6.624 Y14.544 E21.38459
G0 F3600 X6.624 Y13.978
G1 F1800 X10.318 Y17.672 E21.64522
G1 X10.388 Y17.742
G0 F3600 X11.45 Y18.238
G1 F1800 X6.624 Y13.413 E21.98568
G0 F3600 X6.624 Y12.847
G1 F1800 X12.581 Y18.804 E22.40598
G0 F3600 X13.199 Y18.856
G1 F1800 X6.624 Y12.281 E22.86988
G0 F3600 X6.624 Y11.716
G1 F1800 X13.577 Y18.668 E23.36042
G0 F3600 X13.954 Y18.479
G1 F1800 X6.624 Y11.15 E23.87756
G0 F3600 X6.624 Y10.584
G1 F1800 X14.33 Y18.29 E24.42126
G0 F3600 X14.708 Y18.102
G1 F1800 X6.624 Y10.018 E24.99163
G0 F3600 X6.844 Y9.673
G1 F1800 X15.085 Y17.913 E25.57304
G0 F3600 X15.462 Y17.725
G1 F1800 X7.222 Y9.485 E26.15441
G0 F3600 X7.599 Y9.296
G1 F1800 X15.839 Y17.536 E26.73579
G0 F3600 X16.216 Y17.348
G1 F1800 X7.976 Y9.107 E27.3172
G0 F3600 X8.353 Y8.919
G1 F1800 X16.594 Y17.16 E27.89865
G0 F3600 X16.971 Y16.971
G1 F1800 X8.73 Y8.73 E28.4801
G0 F3600 X9.107 Y8.541
G1 F1800 X17.348 Y16.782 E29.06154
G0 F3600 X17.725 Y16.594
G1 F1800 X9.485 Y8.353 E29.64296
G0 F3600 X9.862 Y8.164
G1 F1800 X18.102 Y16.405 E30.22437
G0 F3600 X18.479 Y16.216
G1 F1800 X10.238 Y7.976 E30.80578
G0 F3600 X10.616 Y7.788
G1 F1800 X18.857 Y16.028 E31.38719
G0 F3600 X19.234 Y15.839
G1 F1800 X10.993 Y7.599 E31.9686
G0 F3600 X11.37 Y7.41
G1 F1800 X19.263 Y15.303 E32.5255
G0 F3600 X19.263 Y14.738
G1 F1800 X11.747 Y7.222 E33.05579
G0 F3600 X12.124 Y7.033
G1 F1800 X19.263 Y14.172 E33.55949
G0 F3600 X19.263 Y13.606
G1 F1800 X12.501 Y6.844 E34.03658
G0 F3600 X12.879 Y6.656
G1 F1800 X19.263 Y13.041 E34.48704
G0 F3600 X19.263 Y12.475
G1 F1800 X13.881 Y7.093 E34.86677
G1 X13.811 Y7.023
G0 F3600 X15.013 Y7.659
G1 F1800 X19.263 Y11.909 E35.16663
G0 F3600 X19.263 Y11.344
G1 F1800 X16.144 Y8.225 E35.38669
G1 X16.074 Y8.155
G0 F3600 X17.276 Y8.79
G1 F1800 X19.263 Y10.778 E35.52692
G0 F3600 X19.263 Y10.212
G1 F1800 X18.407 Y9.356 E35.58732
G1 X18.337 Y9.286
G0 F3600 X18.314 Y9.331
G1 F1500 E29.08732
;MESH:NONMESH
G0 F600 X18.314 Y9.331 Z0.9
G0 F3600 X5.861 Y9.313
G0 X5.377 Y8.346
G0 X3.724 Y6.358
;TIME_ELAPSED:28.405387
;LAYER:1
M106 S255
;TYPE:SKIRT
G1 F1500 E35.58732
G1 F1800 X4.768 Y5.815 E35.70474
G1 X10.952 Y2.723 E36.39461
G1 X11.557 Y2.432 E36.4616
G1 X12.028 Y2.25 E36.51198
G1 X12.523 Y2.144 E36.56249
G1 X13.028 Y2.117 E36.61295
G1 X13.53 Y2.17 E36.66332
G1 X14.111 Y2.327 E36.72337
G1 X14.809 Y2.66 E36.80054
G1 X21.318 Y5.915 E37.52669
G1 X21.903 Y6.218 E37.59243
G1 X22.332 Y6.485 E37.64285
G1 X22.714 Y6.816 E37.69328
G1 X23.038 Y7.204 E37.74372
G1 X23.298 Y7.638 E37.7942
G1 X23.486 Y8.107 E37.84462
G1 X23.626 Y8.725 E37.90785
G1 X23.644 Y9.798 E38.01492
G1 X23.644 Y15.863 E38.62009
G1 X23.634 Y16.589 E38.69254
G1 X23.587 Y17.092 E38.74295
G1 X23.461 Y17.582 E38.79343
G1 X23.26 Y18.046 E38.84389
G1 X22.988 Y18.472 E38.89432
G1 X22.653 Y18.851 E38.94479
G1 X22.162 Y19.253 E39.00811
G1 X21.12 Y19.795 E39.1253
G1 X14.936 Y22.887 E39.81518
G1 X14.331 Y23.178 E39.88217
G1 X13.86 Y23.36 E39.93255
G1 X13.365 Y23.466 E39.98306
G1 X12.86 Y23.493 E40.03352
G1 X12.358 Y23.44 E40.08389
G1 X11.774 Y23.282 E40.14426
G1 X11.024 Y22.922 E40.22727
G1 X4.57 Y19.695 E40.94726
G1 X3.985 Y19.392 E41.013
G1 X3.556 Y19.125 E41.06342
G1 X3.174 Y18.794 E41.11385
G1 X2.85 Y18.406 E41.16429
G1 X2.59 Y17.972 E41.21477
G1 X2.402 Y17.503 E41.26519
G1 X2.261 Y16.884 E41.32853
G1 X2.244 Y15.781 E41.4386
G1 X2.244 Y9.704 E42.04497
G1 X2.254 Y9.018 E42.11343
G1 X2.302 Y8.515 E42.16384
G1 X2.428 Y8.025 E42.21433
G1 X2.629 Y7.562 E42.26469
G1 X2.901 Y7.136 E42.31512
G1 X3.237 Y6.758 E42.36559
G1 X3.724 Y6.358 E42.42847
G1 F1500 E35.92847
;MESH:Simple_Hexagon2.stl
G0 F5400 X5.377 Y8.346
G0 X5.861 Y9.313
G0 X12.944 Y19.31
G0 X12.944 Y19.635
;TYPE:WALL-INNER
G1 F1500 E42.42847
G1 F2700 X19.844 Y16.185 E43.19822
G1 X19.844 Y9.425 E43.87273
G1 X12.944 Y5.975 E44.64248
G1 X6.044 Y9.425 E45.41223
G1 X6.044 Y16.185 E46.08675
G1 X12.944 Y19.635 E46.8565
G0 F5400 X12.944 Y20.082
;TYPE:WALL-OUTER
G1 F1800 X20.244 Y16.432 E47.67087
G1 X20.244 Y9.178 E48.39468
G1 X12.944 Y5.528 E49.20905
G1 X5.644 Y9.178 E50.02342
G1 X5.644 Y16.432 E50.74723
G1 X12.944 Y20.082 E51.5616
G0 F5400 X13.122 Y19.993
G0 X12.944 Y19.21
;TYPE:SKIN
G1 F1800 X6.425 Y15.95 E52.28887
G1 X6.425 Y9.66 E52.91649
G1 X12.944 Y6.4 E53.64376
G1 X19.464 Y9.66 E54.37111
G1 X19.464 Y15.95 E54.99873
G1 X12.944 Y19.21 E55.72609
G0 F5400 X19.263 Y15.243
G1 F1800 X18.099 Y16.407 E55.89034
G1 X18.029 Y16.477
G0 F5400 X16.968 Y16.972
G1 F1800 X19.263 Y14.678 E56.21412
G0 F5400 X19.263 Y14.112
G1 F1800 X15.837 Y17.538 E56.69757
G1 X15.767 Y17.608
G0 F5400 X14.706 Y18.103
G1 F1800 X19.263 Y13.546 E57.34061
G0 F5400 X19.263 Y12.981
G1 F1800 X13.575 Y18.669 E58.14325
G1 X13.505 Y18.739
G0 F5400 X12.777 Y18.9
G1 F1800 X19.263 Y12.415 E59.05842
G0 F5400 X19.263 Y11.849
G1 F1800 X12.4 Y18.712 E60.02687
G0 F5400 X12.023 Y18.523
G1 F1800 X19.263 Y11.284 E61.04844
G0 F5400 X19.263 Y10.718
G1 F1800 X11.646 Y18.335 E62.12328
G0 F5400 X11.269 Y18.146
G1 F1800 X19.263 Y10.152 E63.25132
G0 F5400 X19.13 Y9.719
G1 F1800 X10.892 Y17.957 E64.41379
G0 F5400 X10.514 Y17.769
G1 F1800 X18.753 Y9.53 E65.5764
G0 F5400 X18.376 Y9.342
G1 F1800 X10.137 Y17.58 E66.73894
G0 F5400 X9.76 Y17.392
G1 F1800 X17.999 Y9.153 E67.90155
G0 F5400 X17.622 Y8.964
G1 F1800 X9.383 Y17.203 E69.06417
G0 F5400 X9.006 Y17.015
G1 F1800 X17.244 Y8.776 E70.22671
G0 F5400 X16.868 Y8.587
G1 F1800 X8.628 Y16.827 E71.38946
G0 F5400 X8.251 Y16.638
G1 F1800 X16.491 Y8.399 E72.55214
G0 F5400 X16.113 Y8.21
G1 F1800 X7.874 Y16.45 E73.71482
G0 F5400 X7.497 Y16.261
G1 F1800 X15.736 Y8.022 E74.87744
G0 F5400 X15.359 Y7.833
G1 F1800 X7.12 Y16.072 E76.04005
G0 F5400 X6.742 Y15.884
G1 F1800 X14.982 Y7.645 E77.20273
G0 F5400 X14.605 Y7.456
G1 F1800 X6.624 Y15.436 E78.32887
G0 F5400 X6.624 Y14.871
G1 F1800 X14.228 Y7.267 E79.40187
G0 F5400 X13.85 Y7.079
G1 F1800 X6.624 Y14.305 E80.42154
G0 F5400 X6.624 Y13.739
G1 F1800 X13.473 Y6.89 E81.38801
G0 F5400 X13.097 Y6.701
G1 F1800 X6.624 Y13.174 E82.30142
G0 F5400 X6.624 Y12.608
G1 F1800 X12.273 Y6.96 E83.09848
G1 X12.343 Y6.89
G0 F5400 X11.142 Y7.525
G1 F1800 X6.624 Y12.042 E83.73595
G0 F5400 X6.624 Y11.477
G1 F1800 X10.011 Y8.09 E84.21389
G1 X10.081 Y8.02
G0 F5400 X8.88 Y8.655
G1 F1800 X6.624 Y10.911 E84.53224
G0 F5400 X6.624 Y10.345
G1 F1800 X7.749 Y9.22 E84.69099
G1 X7.819 Y9.15
G0 F5400 X7.841 Y9.198
G1 F1500 E78.19099
;MESH:NONMESH
G0 F600 X7.841 Y9.198 Z1.5
G0 F5400 X5.861 Y9.313
G0 X5.377 Y8.346
G0 X3.724 Y6.358
;TIME_ELAPSED:46.658262
;LAYER:2
;TYPE:SKIRT
G1 F1500 E84.69099
G1 F1800 X4.768 Y5.815 E84.80841
G1 X10.952 Y2.723 E85.49828
G1 X11.557 Y2.432 E85.56527
G1 X12.028 Y2.25 E85.61565
G1 X12.523 Y2.144 E85.66616
G1 X13.028 Y2.117 E85.71662
G1 X13.53 Y2.17 E85.76699
G1 X14.111 Y2.327 E85.82704
G1 X14.809 Y2.66 E85.90421
G1 X21.318 Y5.915 E86.63036
G1 X21.903 Y6.218 E86.6961
G1 X22.332 Y6.485 E86.74652
G1 X22.714 Y6.816 E86.79695
G1 X23.038 Y7.204 E86.84739
G1 X23.298 Y7.638 E86.89787
G1 X23.486 Y8.107 E86.94829
G1 X23.626 Y8.725 E87.01151
G1 X23.644 Y9.798 E87.11859
G1 X23.644 Y15.863 E87.72376
G1 X23.634 Y16.589 E87.79621
G1 X23.587 Y17.092 E87.84662
G1 X23.461 Y17.582 E87.8971
G1 X23.26 Y18.046 E87.94756
G1 X22.988 Y18.472 E87.99799
G1 X22.653 Y18.851 E88.04846
G1 X22.162 Y19.253 E88.11178
G1 X21.12 Y19.795 E88.22897
G1 X14.936 Y22.887 E88.91885
G1 X14.331 Y23.178 E88.98583
G1 X13.86 Y23.36 E89.03622
G1 X13.365 Y23.466 E89.08673
G1 X12.86 Y23.493 E89.13719
G1 X12.358 Y23.44 E89.18756
G1 X11.774 Y23.282 E89.24793
G1 X11.024 Y22.922 E89.33093
G1 X4.57 Y19.695 E90.05093
G1 X3.985 Y19.392 E90.11667
G1 X3.556 Y19.125 E90.16709
G1 X3.174 Y18.794 E90.21752
G1 X2.85 Y18.406 E90.26796
G1 X2.59 Y17.972 E90.31844
G1 X2.402 Y17.503 E90.36886
G1 X2.261 Y16.884 E90.4322
G1 X2.244 Y15.781 E90.54227
G1 X2.244 Y9.704 E91.14864
G1 X2.254 Y9.018 E91.21709
G1 X2.302 Y8.515 E91.26751
G1 X2.428 Y8.025 E91.318
G1 X2.629 Y7.562 E91.36836
G1 X2.901 Y7.136 E91.41879
G1 X3.237 Y6.758 E91.46925
G1 X3.724 Y6.358 E91.53214
G1 F1500 E85.03214
;MESH:Simple_Hexagon2.stl
G0 F7200 X5.377 Y8.346
G0 X5.861 Y9.313
G0 X7.892 Y8.837
G0 X7.829 Y8.71
;TYPE:FILL
G1 F1500 E91.53214
G1 F3600 X6.203 Y14.779 E92.15906
G1 X6.203 Y14.61
G1 X7.681 Y14.214 E92.31174
G1 X7.777 Y14.189
G0 F7200 X6.344 Y14.55
G0 X6.204 Y14.55
G1 F3600 X9.272 Y17.619 E92.74474
G1 X9.342 Y17.689
G0 F7200 X9.418 Y17.536
G0 X11.434 Y18.544
G0 X11.372 Y18.669
G1 F3600 X11.679 Y17.523 E92.86312
G1 X11.704 Y17.427
G0 F7200 X12.432 Y19.043
G0 X12.369 Y19.169
G1 F3600 X14.838 Y18.508 E93.11815
G1 X14.934 Y18.483
G0 F7200 X14.863 Y18.339
G0 X16.51 Y16.372
