;FLAVOR:Marlin
;TIME:114
;Filament used: 0.224582m
;Layer height: 0.6
;MINX:84.7
;MINY:84.723
;MINZ:0.3
;MAXX:115.3
;MAXY:115.29
;MAXZ:2.7
;TARGET_MACHINE.NAME:Prusa i3
;Generated with Cura_SteamEngine 5.6.0
M140 S60
M105
M190 S60
M104 S200
M105
M109 S200
M82 ;absolute extrusion mode
G21 ;metric values
G90 ;absolute positioning
M82 ;set extruder to absolute mode
M107 ;start with the fan off
G28 X0 Y0 ;move X/Y to min endstops
G28 Z0 ;move Z to min endstops
G1 Z15.0 F9000 ;move the platform down 15mm
G92 E0 ;zero the extruded length
G1 F200 E3 ;extrude 3mm of feed stock
G92 E0 ;zero the extruded length again
G1 F9000
;Put printing message on LCD screen
M117 Printing...
G92 E0
G92 E0
G1 F1500 E-6.5
;LAYER_COUNT:5
;LAYER:0
M107
G0 F3600 X86.903 Y90.826 Z0.3
;TYPE:SKIRT
G1 F1500 E0
G1 F1800 X88.14 Y89.705 E0.08329
G1 X97.301 Y85.124 E0.59429
G1 X99.357 Y84.723 E0.69879
G1 X100.912 Y84.758 E0.77639
G1 X102.788 Y85.167 E0.87219
G1 X111.563 Y89.619 E1.36309
G1 X113.169 Y90.775 E1.46182
G1 X114.461 Y92.739 E1.5791
G1 X114.945 Y93.763 E1.63561
G1 X115.3 Y95.571 E1.72753
G1 X115.229 Y104.622 E2.1791
G1 X114.989 Y106.061 E2.25188
G1 X114.082 Y107.998 E2.35859
G1 X113.097 Y109.175 E2.43516
G1 X111.86 Y110.296 E2.51845
G1 X102.682 Y114.887 E3.03043
G1 X100.682 Y115.231 E3.13168
G1 X99.242 Y115.29 E3.20358
G1 X97.185 Y114.82 E3.30885
G1 X88.437 Y110.382 E3.79824
G1 X86.831 Y109.226 E3.89696
G1 X85.539 Y107.262 E4.01425
G1 X85.055 Y106.238 E4.07075
G1 X84.7 Y104.43 E4.16268
G1 X84.771 Y95.379 E4.61425
G1 X85.011 Y93.94 E4.68703
G1 X85.918 Y92.003 E4.79374
G1 X86.903 Y90.826 E4.87031
G0 F3600 X87.21 Y91.083
G1 F1800 X88.367 Y90.039 E4.94806
G1 X97.431 Y85.506 E5.45366
G1 X99.392 Y85.124 E5.55333
G1 X100.864 Y85.157 E5.62679
G1 X102.652 Y85.547 E5.71809
G1 X111.329 Y89.944 E6.2034
G1 X112.876 Y91.058 E6.2985
G1 X114.099 Y92.91 E6.40923
G1 X114.562 Y93.889 E6.46326
G1 X114.9 Y95.611 E6.55081
G1 X114.834 Y104.556 E6.99709
G1 X114.603 Y105.943 E7.06724
G1 X113.743 Y107.78 E7.16843
G1 X112.79 Y108.918 E7.24249
G1 X111.633 Y109.962 E7.32024
G1 X102.555 Y114.503 E7.82664
G1 X100.666 Y114.831 E7.9223
G1 X99.278 Y114.888 E7.9916
G1 X97.323 Y114.441 E8.09165
G1 X88.671 Y110.057 E8.57555
G1 X87.124 Y108.943 E8.67066
G1 X85.901 Y107.091 E8.78139
G1 X85.438 Y106.112 E8.83542
G1 X85.1 Y104.39 E8.92297
G1 X85.166 Y95.445 E9.36925
G1 X85.397 Y94.058 E9.4394
G1 X86.257 Y92.221 E9.54059
G1 X87.21 Y91.083 E9.61465
G0 F3600 X87.478 Y91.38
G1 F1800 X88.594 Y90.373 E9.68964
G1 X97.56 Y85.889 E10.18978
G1 X99.428 Y85.525 E10.28472
G1 X100.816 Y85.556 E10.35399
G1 X102.516 Y85.927 E10.4408
G1 X111.095 Y90.269 E10.9205
G1 X112.584 Y91.341 E11.01204
G1 X113.737 Y93.081 E11.11618
G1 X114.18 Y94.018 E11.16789
G1 X114.5 Y95.646 E11.25066
G1 X114.439 Y104.49 E11.6919
G1 X114.217 Y105.825 E11.75942
G1 X113.403 Y107.564 E11.85521
G1 X112.522 Y108.621 E11.92386
G1 X111.406 Y109.628 E11.99885
G1 X102.428 Y114.119 E12.49968
G1 X100.65 Y114.431 E12.58974
G1 X99.314 Y114.486 E12.65645
G1 X97.461 Y114.062 E12.75129
G1 X88.905 Y109.732 E13.2297
G1 X87.416 Y108.66 E13.32123
G1 X86.263 Y106.92 E13.42537
G1 X85.82 Y105.983 E13.47708
G1 X85.5 Y104.355 E13.55986
G1 X85.561 Y95.511 E14.0011
G1 X85.783 Y94.176 E14.06861
G1 X86.597 Y92.437 E14.16441
G1 X87.478 Y91.38 E14.23306
G0 F3600 X87.746 Y91.677
G1 F1800 X88.821 Y90.707 E14.30529
G1 X97.689 Y86.272 E14.79996
G1 X99.464 Y85.926 E14.89019
G1 X100.768 Y85.955 E14.95526
G1 X102.38 Y86.307 E15.03758
G1 X110.914 Y90.626 E15.51476
G1 X112.291 Y91.623 E15.59958
G1 X113.375 Y93.252 E15.6972
G1 X113.798 Y94.147 E15.74658
G1 X114.1 Y95.681 E15.82458
G1 X114.044 Y104.424 E16.26078
G1 X113.83 Y105.709 E16.32578
G1 X113.064 Y107.347 E16.41599
G1 X112.254 Y108.324 E16.47931
G1 X111.179 Y109.294 E16.55154
G1 X102.301 Y113.735 E17.04679
G1 X100.633 Y114.031 E17.13131
G1 X99.35 Y114.084 E17.19537
G1 X97.599 Y113.683 E17.28499
G1 X89.086 Y109.375 E17.76099
G1 X87.709 Y108.378 E17.84581
G1 X86.625 Y106.749 E17.94343
G1 X86.202 Y105.854 E17.99282
G1 X85.9 Y104.32 E18.07082
G1 X85.956 Y95.577 E18.50702
G1 X86.17 Y94.292 E18.57201
G1 X86.936 Y92.654 E18.66222
G1 X87.746 Y91.677 E18.72554
G0 F3600 X88.014 Y91.974
G1 F1800 X89.048 Y91.041 E18.79502
G1 X97.818 Y86.655 E19.28423
G1 X99.5 Y86.327 E19.36972
G1 X100.72 Y86.354 E19.4306
G1 X102.244 Y86.687 E19.50843
G1 X110.733 Y90.983 E19.98309
G1 X111.997 Y91.903 E20.06109
G1 X113.013 Y93.423 E20.1523
G1 X113.416 Y94.276 E20.19937
G1 X113.7 Y95.716 E20.27259
G1 X113.649 Y104.358 E20.70375
G1 X113.443 Y105.593 E20.76622
G1 X112.725 Y107.13 E20.85085
G1 X111.986 Y108.027 E20.90884
G1 X110.952 Y108.96 E20.97832
G1 X102.174 Y113.351 E21.46799
G1 X100.616 Y113.631 E21.54697
G1 X99.386 Y113.682 E21.60838
G1 X97.737 Y113.304 E21.69279
G1 X89.267 Y109.018 E22.16638
G1 X88.003 Y108.098 E22.24437
G1 X86.987 Y106.578 E22.33559
G1 X86.584 Y105.725 E22.38265
G1 X86.3 Y104.285 E22.45588
G1 X86.351 Y95.643 E22.88704
G1 X86.557 Y94.408 E22.9495
G1 X87.275 Y92.871 E23.03414
G1 X88.014 Y91.974 E23.09212
G0 F3600 X88.282 Y92.271
G1 F1800 X89.275 Y91.375 E23.15885
G1 X97.947 Y87.038 E23.64259
G1 X99.536 Y86.728 E23.72336
G1 X100.672 Y86.753 E23.78005
G1 X102.108 Y87.067 E23.85338
G1 X110.552 Y91.34 E24.32552
G1 X111.704 Y92.184 E24.39677
G1 X112.68 Y93.645 E24.48443
G1 X113.034 Y94.402 E24.52612
G1 X113.3 Y95.751 E24.59472
G1 X113.254 Y104.292 E25.02084
G1 X113.056 Y105.477 E25.08078
G1 X112.386 Y106.913 E25.15983
G1 X111.718 Y107.73 E25.21248
G1 X110.725 Y108.626 E25.27921
G1 X102.047 Y112.967 E25.7633
G1 X100.599 Y113.231 E25.83674
G1 X99.422 Y113.28 E25.89551
G1 X97.875 Y112.925 E25.97469
G1 X89.448 Y108.661 E26.44588
G1 X88.296 Y107.817 E26.51712
G1 X87.32 Y106.356 E26.60478
G1 X86.966 Y105.599 E26.64647
G1 X86.7 Y104.25 E26.71507
G1 X86.746 Y95.709 E27.14119
G1 X86.944 Y94.524 E27.20113
G1 X87.614 Y93.088 E27.28019
G1 X88.282 Y92.271 E27.33284
G0 F3600 X88.55 Y92.568
G1 F1800 X89.502 Y91.709 E27.39681
G1 X98.077 Y87.42 E27.87515
G1 X99.571 Y87.129 E27.95108
G1 X100.623 Y87.152 E28.00358
G1 X101.975 Y87.448 E28.07263
G1 X110.316 Y91.663 E28.53888
G1 X111.41 Y92.465 E28.60655
G1 X112.347 Y93.867 E28.69068
G1 X112.651 Y94.527 E28.72694
G1 X112.9 Y95.787 E28.79101
G1 X112.859 Y104.226 E29.21204
G1 X112.669 Y105.361 E29.26945
G1 X112.046 Y106.696 E29.34295
G1 X111.45 Y107.433 E29.39024
G1 X110.498 Y108.292 E29.45421
G1 X101.92 Y112.583 E29.93273
G1 X100.527 Y112.837 E30.00337
G1 X99.458 Y112.878 E30.05674
G1 X98.011 Y112.546 E30.13081
G1 X89.684 Y108.338 E30.59628
G1 X88.59 Y107.536 E30.66395
G1 X87.653 Y106.134 E30.74808
G1 X87.349 Y105.474 E30.78434
G1 X87.1 Y104.214 E30.84841
G1 X87.141 Y95.775 E31.26944
G1 X87.331 Y94.64 E31.32686
G1 X87.954 Y93.305 E31.40035
G1 X88.55 Y92.568 E31.44764
G0 F3600 X88.818 Y92.865
G1 F1800 X89.729 Y92.043 E31.50886
G1 X98.206 Y87.803 E31.98173
G1 X99.607 Y87.53 E32.05294
G1 X100.575 Y87.551 E32.10125
G1 X101.841 Y87.828 E32.1659
G1 X110.079 Y91.986 E32.62628
G1 X111.117 Y92.747 E32.69049
G1 X112.014 Y94.089 E32.77103
G1 X112.268 Y94.653 E32.80189
G1 X112.5 Y95.824 E32.86144
G1 X112.464 Y104.16 E33.27733
G1 X112.283 Y105.241 E33.33201
G1 X111.703 Y106.485 E33.40049
G1 X111.182 Y107.136 E33.44209
G1 X110.271 Y107.958 E33.50331
G1 X101.793 Y112.199 E33.97625
G1 X100.455 Y112.443 E34.0441
G1 X99.496 Y112.476 E34.09197
G1 X98.146 Y112.166 E34.16108
G1 X89.921 Y108.015 E34.62072
G1 X88.883 Y107.254 E34.68493
G1 X87.986 Y105.912 E34.76547
G1 X87.732 Y105.348 E34.79633
G1 X87.5 Y104.177 E34.85588
G1 X87.536 Y95.841 E35.27177
G1 X87.717 Y94.76 E35.32645
G1 X88.297 Y93.516 E35.39493
G1 X88.818 Y92.865 E35.43653
G0 F3600 X89.086 Y93.162
G1 F1800 X89.956 Y92.377 E35.49499
G1 X98.335 Y88.186 E35.9624
G1 X99.643 Y87.931 E36.02888
G1 X100.526 Y87.95 E36.07294
G1 X101.708 Y88.209 E36.13331
G1 X109.843 Y92.309 E36.5878
G1 X110.824 Y93.028 E36.64848
G1 X111.649 Y94.254 E36.72221
G1 X111.886 Y94.779 E36.75095
G1 X112.1 Y95.861 E36.80597
G1 X112.064 Y104.158 E37.21992
G1 X111.898 Y105.119 E37.26857
G1 X111.36 Y106.273 E37.33209
G1 X110.914 Y106.839 E37.36804
G1 X110.044 Y107.624 E37.4265
G1 X101.663 Y111.816 E37.89402
G1 X100.441 Y112.043 E37.95603
G1 X99.535 Y112.074 E38.00126
G1 X98.281 Y111.786 E38.06545
G1 X90.157 Y107.692 E38.51931
G1 X89.176 Y106.973 E38.57999
G1 X88.351 Y105.747 E38.65372
G1 X88.114 Y105.222 E38.68245
G1 X87.9 Y104.14 E38.73748
G1 X87.936 Y95.843 E39.15142
G1 X88.102 Y94.882 E39.20008
G1 X88.64 Y93.728 E39.2636
G1 X89.086 Y93.162 E39.29955
G0 F3600 X89.354 Y93.459
G1 F1800 X90.183 Y92.711 E39.35526
G1 X98.465 Y88.569 E39.81724
G1 X99.679 Y88.332 E39.87895
G1 X100.477 Y88.349 E39.91877
G1 X101.575 Y88.59 E39.97486
G1 X109.607 Y92.632 E40.42346
G1 X110.531 Y93.309 E40.4806
G1 X111.284 Y94.418 E40.54748
G1 X111.503 Y94.904 E40.57408
G1 X111.7 Y95.898 E40.62463
G1 X111.67 Y104.09 E41.03333
G1 X111.513 Y105 E41.0794
G1 X111.018 Y106.061 E41.13782
G1 X110.646 Y106.542 E41.16815
G1 X109.817 Y107.29 E41.22386
G1 X101.534 Y111.433 E41.68591
G1 X100.427 Y111.643 E41.74212
G1 X99.574 Y111.672 E41.7847
G1 X98.416 Y111.406 E41.84398
G1 X90.393 Y107.369 E42.29207
G1 X89.469 Y106.692 E42.34921
G1 X88.716 Y105.583 E42.41609
G1 X88.497 Y105.097 E42.44268
G1 X88.3 Y104.103 E42.49324
G1 X88.33 Y95.911 E42.90194
G1 X88.487 Y95.001 E42.94801
G1 X88.982 Y93.94 E43.00643
G1 X89.354 Y93.459 E43.03676
G0 F3600 X89.622 Y93.756
G1 F1800 X90.41 Y93.045 E43.08971
G1 X98.595 Y88.951 E43.5463
G1 X99.714 Y88.733 E43.60317
G1 X100.428 Y88.748 E43.6388
G1 X101.442 Y88.971 E43.6906
G1 X109.371 Y92.955 E44.13331
G1 X110.239 Y93.591 E44.18699
G1 X110.919 Y94.583 E44.247
G1 X111.121 Y95.03 E44.27147
G1 X111.3 Y95.935 E44.31749
G1 X111.276 Y104.022 E44.72096
G1 X111.128 Y104.881 E44.76444
G1 X110.675 Y105.851 E44.81785
G1 X110.378 Y106.245 E44.84247
G1 X109.59 Y106.956 E44.89542
G1 X101.405 Y111.05 E45.35201
G1 X100.414 Y111.243 E45.40238
G1 X99.612 Y111.27 E45.44241
G1 X98.552 Y111.027 E45.49667
G1 X90.629 Y107.046 E45.93904
G1 X89.761 Y106.41 E45.99272
G1 X89.081 Y105.418 E46.05273
G1 X88.879 Y104.971 E46.0772
G1 X88.7 Y104.066 E46.12322
G1 X88.724 Y95.979 E46.52669
G1 X88.872 Y95.12 E46.57017
G1 X89.325 Y94.15 E46.62359
G1 X89.622 Y93.756 E46.6482
G0 F3600 X89.89 Y94.053
G1 F1800 X90.637 Y93.379 E46.6984
G1 X98.724 Y89.334 E47.14951
G1 X99.75 Y89.134 E47.20167
G1 X100.379 Y89.147 E47.23305
G1 X101.307 Y89.351 E47.28046
G1 X109.135 Y93.278 E47.71738
G1 X109.948 Y93.874 E47.76768
G1 X110.559 Y94.758 E47.82129
G1 X110.729 Y95.108 E47.8407
G1 X110.9 Y95.972 E47.88464
G1 X110.882 Y103.954 E48.28287
G1 X110.743 Y104.758 E48.32357
G1 X110.328 Y105.648 E48.37257
G1 X110.11 Y105.948 E48.39107
G1 X109.363 Y106.622 E48.44126
G1 X101.276 Y110.667 E48.89238
G1 X100.337 Y110.85 E48.94011
G1 X99.65 Y110.868 E48.9744
G1 X98.689 Y110.648 E49.02358
G1 X90.865 Y106.723 E49.46029
G1 X90.052 Y106.127 E49.51058
G1 X89.441 Y105.243 E49.56419
G1 X89.271 Y104.893 E49.5836
G1 X89.1 Y104.029 E49.62754
G1 X89.118 Y96.047 E50.02577
G1 X89.257 Y95.243 E50.06648
G1 X89.672 Y94.353 E50.11547
G1 X89.89 Y94.053 E50.13397
G0 F3600 X90.158 Y94.35
G1 F1800 X90.864 Y93.713 E50.18141
G1 X98.854 Y89.717 E50.62711
G1 X99.786 Y89.535 E50.67448
G1 X100.33 Y89.546 E50.70163
G1 X101.173 Y89.731 E50.74469
G1 X108.899 Y93.601 E51.17579
G1 X109.658 Y94.157 E51.22273
G1 X110.23 Y94.985 E51.27294
G1 X110.347 Y95.237 E51.2868
G1 X110.5 Y96.009 E51.32606
G1 X110.488 Y103.886 E51.71905
G1 X110.358 Y104.638 E51.75712
G1 X109.997 Y105.423 E51.80023
G1 X109.842 Y105.651 E51.81398
G1 X109.136 Y106.288 E51.86142
G1 X101.146 Y110.284 E52.30712
G1 X100.26 Y110.457 E52.35216
G1 X99.69 Y110.467 E52.3806
G1 X98.826 Y110.269 E52.42482
G1 X91.101 Y106.4 E52.85586
G1 X90.342 Y105.844 E52.9028
G1 X89.77 Y105.016 E52.95301
G1 X89.653 Y104.764 E52.96687
G1 X89.5 Y103.992 E53.00613
G1 X89.512 Y96.115 E53.39912
G1 X89.642 Y95.363 E53.43719
G1 X90.003 Y94.578 E53.4803
G1 X90.158 Y94.35 E53.49405
G0 F3600 X90.461 Y94.615
G1 F1800 X91.091 Y94.047 E53.53637
G1 X98.984 Y90.099 E53.97667
G1 X99.862 Y89.928 E54.0213
G1 X100.314 Y89.946 E54.04386
G1 X101.037 Y90.111 E54.08086
G1 X108.663 Y93.924 E54.50623
G1 X109.368 Y94.44 E54.54982
G1 X109.901 Y95.212 E54.59662
G1 X109.964 Y95.361 E54.60469
G1 X110.1 Y96.046 E54.63953
G1 X110.094 Y103.818 E55.02728
G1 X109.973 Y104.519 E55.06277
G1 X109.634 Y105.256 E55.10324
G1 X109.539 Y105.386 E55.11128
G1 X108.909 Y105.954 E55.1536
G1 X101.016 Y109.902 E55.59389
G1 X100.184 Y110.064 E55.63618
G1 X99.732 Y110.066 E55.65873
G1 X98.963 Y109.89 E55.69809
G1 X91.337 Y106.077 E56.12346
G1 X90.632 Y105.561 E56.16705
G1 X90.099 Y104.789 E56.21385
G1 X90.036 Y104.64 E56.22192
G1 X89.9 Y103.955 E56.25676
G1 X89.906 Y96.183 E56.64451
G1 X90.027 Y95.482 E56.68
G1 X90.366 Y94.745 E56.72047
G1 X90.461 Y94.615 E56.7285
G0 F3600 X90.729 Y94.912
G1 F1800 X91.318 Y94.381 E56.76807
G1 X99.114 Y90.482 E57.20294
G1 X99.939 Y90.321 E57.24488
G1 X100.225 Y90.336 E57.25917
G1 X100.9 Y90.49 E57.29371
G1 X108.484 Y94.282 E57.71674
G1 X109.077 Y94.722 E57.75358
G1 X109.572 Y95.439 E57.79704
G1 X109.7 Y96.084 E57.82985
G1 X109.7 Y103.75 E58.21231
G1 X109.588 Y104.4 E58.24521
G1 X109.271 Y105.089 E58.28305
G1 X108.682 Y105.62 E58.32262
G1 X100.886 Y109.519 E58.75749
G1 X100.107 Y109.671 E58.79709
G1 X99.821 Y109.676 E58.81136
G1 X99.1 Y109.511 E58.84826
G1 X91.516 Y105.719 E59.27129
G1 X90.923 Y105.279 E59.30813
G1 X90.428 Y104.562 E59.3516
G1 X90.3 Y103.917 E59.3844
G1 X90.3 Y96.251 E59.76686
G1 X90.412 Y95.601 E59.79977
G1 X90.729 Y94.912 E59.83761
G0 F3600 X91.057 Y95.155
G1 F1800 X91.545 Y94.715 E59.87039
G1 X99.244 Y90.865 E60.29984
G1 X99.97 Y90.723 E60.33675
G1 X100.136 Y90.726 E60.34503
G1 X100.763 Y90.869 E60.37711
G1 X108.305 Y94.64 E60.7978
G1 X108.786 Y95.004 E60.82789
G1 X109.196 Y95.598 E60.8639
G1 X109.3 Y96.084 E60.8887
G1 X109.3 Y103.75 E61.27116
G1 X109.203 Y104.28 E61.29804
G1 X108.943 Y104.846 E61.32911
G1 X108.455 Y105.286 E61.36189
G1 X100.756 Y109.136 E61.79135
G1 X100.03 Y109.278 E61.82825
G1 X99.864 Y109.275 E61.83654
G1 X99.237 Y109.132 E61.86862
G1 X91.695 Y105.361 E62.2893
G1 X91.214 Y104.997 E62.3194
G1 X90.804 Y104.403 E62.35541
G1 X90.7 Y103.917 E62.3802
G1 X90.7 Y96.251 E62.76266
G1 X90.797 Y95.721 E62.78954
G1 X91.057 Y95.155 E62.82062
G0 F3600 X91.386 Y95.396
G1 F1800 X91.724 Y95.073 E62.84394
G1 X99.374 Y91.248 E63.27065
G1 X100.047 Y91.116 E63.30487
G1 X100.626 Y91.248 E63.33449
G1 X108.126 Y94.998 E63.75284
G1 X108.494 Y95.284 E63.77609
G1 X108.822 Y95.759 E63.80489
G1 X108.9 Y96.084 E63.82156
G1 X108.9 Y103.75 E64.20402
G1 X108.811 Y104.203 E64.22705
G1 X108.614 Y104.605 E64.24939
G1 X108.276 Y104.928 E64.27271
G1 X100.626 Y108.753 E64.69942
G1 X99.953 Y108.885 E64.73364
G1 X99.374 Y108.753 E64.76326
G1 X91.874 Y105.003 E65.18161
G1 X91.506 Y104.717 E65.20486
G1 X91.178 Y104.242 E65.23366
G1 X91.1 Y103.917 E65.25033
G1 X91.1 Y96.251 E65.63279
G1 X91.189 Y95.798 E65.65582
G1 X91.386 Y95.396 E65.67816
G0 F3600 X91.739 Y95.584
G1 F1800 X91.903 Y95.431 E65.68935
G1 X99.553 Y91.606 E66.11606
G1 X100.042 Y91.525 E66.14078
G1 X100.447 Y91.606 E66.16139
G1 X107.947 Y95.356 E66.57973
G1 X108.243 Y95.595 E66.59871
G1 X108.438 Y95.87 E66.61553
G1 X108.5 Y96.084 E66.62665
G1 X108.5 Y103.75 E67.00911
G1 X108.42 Y104.118 E67.02789
G1 X108.261 Y104.417 E67.04479
G1 X108.097 Y104.57 E67.05598
G1 X100.447 Y108.395 E67.48269
G1 X99.958 Y108.476 E67.50742
G1 X99.553 Y108.395 E67.52802
G1 X92.053 Y104.645 E67.94636
G1 X91.757 Y104.406 E67.96534
G1 X91.562 Y104.131 E67.98216
G1 X91.5 Y103.917 E67.99328
G1 X91.5 Y96.251 E68.37574
G1 X91.58 Y95.883 E68.39453
G1 X91.739 Y95.584 E68.41142
G0 F3600 X92.348 Y96.103
G1 F1800 X99.911 Y92.322 E68.83327
G1 X100.089 Y92.322 E68.84215
G1 X107.589 Y96.072 E69.26049
G1 X107.7 Y96.182 E69.26828
G1 X107.7 Y103.75 E69.64585
G1 X107.652 Y103.898 E69.65362
G1 X100.089 Y107.679 E70.07546
G1 X99.911 Y107.679 E70.08434
G1 X92.411 Y103.929 E70.50268
G1 X92.3 Y103.819 E70.51048
G1 X92.3 Y96.251 E70.88805
G1 X92.348 Y96.103 E70.89581
G0 F3600 X92.082 Y95.789
G1 F1800 X99.732 Y91.964 E71.32252
